src/4-icons/window.svg

<svg width="260" height="260" viewBox="0 0 260 260" fill="none" xmlns="http://www.w3.org/2000/svg">
<g opacity="0.9">
<path d="M48.1254 54.8864C50.9976 54.8864 53.3254 52.5586 53.3254 49.6864C53.3254 46.8142 50.9976 44.4864 48.1254 44.4864C45.2532 44.4864 42.9254 46.8142 42.9254 49.6864C42.9254 52.5586 45.2532 54.8864 48.1254 54.8864Z" fill="black"/>
<path d="M68.7953 49.6864C68.7953 52.5586 66.4675 54.8864 63.5953 54.8864C60.7231 54.8864 58.3953 52.5586 58.3953 49.6864C58.3953 46.8142 60.7231 44.4864 63.5953 44.4864C66.4675 44.4864 68.7953 46.8142 68.7953 49.6864Z" fill="black"/>
<path d="M79.0652 54.8864C81.9374 54.8864 84.2652 52.5586 84.2652 49.6864C84.2652 46.8142 81.9374 44.4864 79.0652 44.4864C76.1931 44.4864 73.8652 46.8142 73.8652 49.6864C73.8652 52.5586 76.1931 54.8864 79.0652 54.8864Z" fill="black"/>
<path fill-rule="evenodd" clip-rule="evenodd" d="M39.416 30.8359H220.011C227.188 30.8623 232.986 36.6595 233.011 43.8359V200.564C232.985 207.741 227.187 213.539 220.011 213.564H39.416C32.2406 213.538 26.4424 207.74 26.416 200.564V43.8359C26.4424 36.6595 32.2396 30.8623 39.416 30.8359ZM39.3896 41.237C38.6878 41.2634 38.0632 41.5234 37.5696 42.017C37.076 42.5105 36.815 43.1352 36.815 43.837V57.5916H222.585V43.837C222.56 43.1352 222.3 42.5105 221.805 42.017C221.31 41.5234 220.687 41.237 219.985 41.237H39.3896ZM220.011 203.164C220.713 203.139 221.337 202.879 221.831 202.384C222.326 201.89 222.612 201.266 222.612 200.564V67.9895H36.816V200.564C36.8424 201.266 37.1024 201.89 37.596 202.384C38.0896 202.879 38.7142 203.164 39.416 203.164H220.011Z" fill="black"/>
</g>
</svg>

<svg width="260" height="260" fill="none" xmlns="http://www.w3.org/2000/svg"><g opacity=".9" fill="#000"><path d="M48.125 54.886a5.2 5.2 0 1 0 .001-10.399 5.2 5.2 0 0 0 0 10.4Zm20.67-5.2a5.2 5.2 0 1 1-10.399.001 5.2 5.2 0 0 1 10.4 0Zm10.27 5.2a5.2 5.2 0 1 0 .001-10.399 5.2 5.2 0 0 0 0 10.4Z"/><path fill-rule="evenodd" clip-rule="evenodd" d="M39.416 30.836h180.595c7.177.026 12.975 5.824 13 13v156.728c-.026 7.177-5.824 12.975-13 13H39.416c-7.175-.026-12.974-5.824-13-13V43.836a13.038 13.038 0 0 1 13-13Zm-.026 10.401a2.651 2.651 0 0 0-1.82.78 2.516 2.516 0 0 0-.755 1.82v13.755h185.77V43.837a2.639 2.639 0 0 0-.78-1.82c-.495-.494-1.118-.78-1.82-.78H39.39Zm180.62 161.927a2.64 2.64 0 0 0 1.82-.78c.495-.494.781-1.118.781-1.82V67.989H36.816v132.575c.026.702.286 1.326.78 1.82.494.495 1.118.78 1.82.78h180.595Z"/></g></svg>
